packages/ui/src/lib/icons/svg/lab.svg

<svg width="100%" height="100%" viewBox="0 0 16 16" fill="none" xmlns="http://www.w3.org/2000/svg">
<path d="M10.1719 1.75L9.75391 5.92578L9.71387 6.31934L10.0176 6.57422L13.25 9.29199V14.25H2.75V9.29199L5.98242 6.57422L6.28613 6.31934L6.24609 5.92578L5.82812 1.75H10.1719Z" stroke="currentColor" stroke-width="1.5"/>
<path d="M5.27222 11.8889C6.99994 9.5 8.53886 13.2676 10.164 10.4462" stroke="currentColor" stroke-width="1.5"/>
</svg>

<svg xmlns="http://www.w3.org/2000/svg" fill="none" viewBox="0 0 16 16" width="100%" height="100%"><path stroke="currentColor" stroke-width="1.5" d="m10.172 1.75-.418 4.176-.04.393.304.255 3.232 2.718v4.958H2.75V9.292l3.232-2.718.304-.255-.04-.393-.418-4.176z"/><path stroke="currentColor" stroke-width="1.5" d="M5.272 11.889C7 9.5 8.54 13.268 10.164 10.446"/></svg>
